X: 8961
T: Cut The File
R: jig
M: 6/8
K: Adorian
|:f|ecA A2B|c3 B2A|d2d d2f|g2e faf|
ecA A2B|c3 B2A|G2B d2g|ecA A2:|
|:f|ecA e2f|g3 f2e|a2a aba|g2f e2g|
a2a aba|g3 e2g|f2d d2f|1 g2e fa:|2 g2e b2||

